X:98
T:New New Nothing
M:C|
L:1/8
Q:140
K:Bb
d4d4|cdBc A2G2|B3c def2|g2d2c2B2|f4f4|f2 ga b2f2|gfed c2f2|gfed c2B2||

